X:209
T:Jockey to the Fair TS.209
M:6/8
L:1/8
Q:3/8=100
S:Thomas Sands’ MS,1810,Lincolnshire
R:jig
N:Key sig. off the stave in margin of ms
N:As previous tune
O:England;Lincolnshire
Z:vmp.Ruairidh Greig, 2011
K:G
D|G2AB2c|d2gd2c|(B/c/d/G) GFG|(A/B/c/B) BAd|
dcd efg|(fg/a/f)e2g|fed Adc|d3d2:|
d|afd afd|c2cB2d|dgd dgd|c2cB2B|
e2 f gfe|^d2eB2e|e^de B2A|G2FE2D|
G2GB2d|e2fHg2|dBGA2B|E2FG2A|B2g BcA|G3G2:|]

